public/assets/members.svg

<svg xmlns="http://www.w3.org/2000/svg" width="20" height="20" viewBox="0 0 20 20" fill="none">
  <path fill-rule="evenodd" clip-rule="evenodd" d="M7.50033 1.04169C5.3142 1.04169 3.54199 2.81389 3.54199 5.00002C3.54199 7.18615 5.3142 8.95835 7.50033 8.95835C9.68645 8.95835 11.4587 7.18615 11.4587 5.00002C11.4587 2.81389 9.68645 1.04169 7.50033 1.04169ZM4.79199 5.00002C4.79199 3.50425 6.00455 2.29169 7.50033 2.29169C8.9961 2.29169 10.2087 3.50425 10.2087 5.00002C10.2087 6.49579 8.9961 7.70835 7.50033 7.70835C6.00455 7.70835 4.79199 6.49579 4.79199 5.00002Z" fill="#5C5C7B"/>
  <path d="M12.5003 1.87502C12.1551 1.87502 11.8753 2.15484 11.8753 2.50002C11.8753 2.8452 12.1551 3.12502 12.5003 3.12502C13.5359 3.12502 14.3753 3.96449 14.3753 5.00002C14.3753 6.03555 13.5359 6.87502 12.5003 6.87502C12.1551 6.87502 11.8753 7.15484 11.8753 7.50002C11.8753 7.8452 12.1551 8.12502 12.5003 8.12502C14.2262 8.12502 15.6253 6.72591 15.6253 5.00002C15.6253 3.27413 14.2262 1.87502 12.5003 1.87502Z" fill="#5C5C7B"/>
  <path fill-rule="evenodd" clip-rule="evenodd" d="M3.06545 11.267C4.23159 10.6006 5.80088 10.2084 7.50033 10.2084C9.19977 10.2084 10.7691 10.6006 11.9352 11.267C13.0837 11.9233 13.9587 12.9251 13.9587 14.1667C13.9587 15.4082 13.0837 16.4101 11.9352 17.0664C10.7691 17.7327 9.19977 18.125 7.50033 18.125C5.80088 18.125 4.23159 17.7327 3.06545 17.0664C1.91699 16.4101 1.04199 15.4082 1.04199 14.1667C1.04199 12.9251 1.91699 11.9233 3.06545 11.267ZM3.68562 12.3523C2.72283 12.9025 2.29199 13.5673 2.29199 14.1667C2.29199 14.7661 2.72283 15.4309 3.68562 15.9811C4.63073 16.5211 5.97811 16.875 7.50033 16.875C9.02254 16.875 10.3699 16.5211 11.315 15.9811C12.2778 15.4309 12.7087 14.7661 12.7087 14.1667C12.7087 13.5673 12.2778 12.9025 11.315 12.3523C10.3699 11.8123 9.02254 11.4584 7.50033 11.4584C5.97811 11.4584 4.63073 11.8123 3.68562 12.3523Z" fill="#5C5C7B"/>
  <path d="M15.1342 11.0562C14.797 10.9823 14.4638 11.1956 14.3898 11.5328C14.3159 11.87 14.5293 12.2032 14.8664 12.2772C15.5268 12.422 16.0545 12.6707 16.4027 12.9557C16.7515 13.2411 16.8753 13.5198 16.8753 13.75C16.8753 13.9589 16.7748 14.2042 16.4977 14.4616C16.2187 14.7209 15.7899 14.9604 15.2368 15.1269C14.9063 15.2264 14.719 15.5751 14.8185 15.9056C14.9181 16.2361 15.2667 16.4234 15.5972 16.3238C16.2827 16.1174 16.8955 15.7982 17.3485 15.3774C17.8034 14.9548 18.1253 14.3989 18.1253 13.75C18.1253 13.0294 17.7301 12.4267 17.1943 11.9883C16.6581 11.5495 15.9358 11.232 15.1342 11.0562Z" fill="#5C5C7B"/>
</svg>

<svg xmlns="http://www.w3.org/2000/svg" width="20" height="20" viewBox="0 0 20 20" fill="none"><path fill-rule="evenodd" clip-rule="evenodd" d="M7.5 1.042a3.958 3.958 0 1 0 0 7.916 3.958 3.958 0 0 0 0-7.916ZM4.792 5a2.708 2.708 0 1 1 5.417 0 2.708 2.708 0 0 1-5.417 0Z" fill="#5C5C7B"/><path d="M12.5 1.875a.625.625 0 1 0 0 1.25 1.875 1.875 0 1 1 0 3.75.625.625 0 1 0 0 1.25 3.125 3.125 0 1 0 0-6.25Z" fill="#5C5C7B"/><path fill-rule="evenodd" clip-rule="evenodd" d="M3.065 11.267c1.167-.666 2.736-1.059 4.435-1.059 1.7 0 3.27.393 4.435 1.059 1.149.656 2.024 1.658 2.024 2.9 0 1.241-.875 2.243-2.024 2.9-1.166.666-2.735 1.058-4.435 1.058-1.7 0-3.268-.392-4.435-1.059-1.148-.656-2.023-1.658-2.023-2.9 0-1.24.875-2.243 2.023-2.899Zm.62 1.085c-.962.55-1.393 1.215-1.393 1.815 0 .6.43 1.264 1.394 1.814.945.54 2.292.894 3.814.894 1.523 0 2.87-.354 3.815-.894.963-.55 1.394-1.215 1.394-1.814 0-.6-.431-1.264-1.394-1.815-.945-.54-2.292-.894-3.815-.894-1.522 0-2.87.354-3.814.894Z" fill="#5C5C7B"/><path d="M15.134 11.056a.625.625 0 0 0-.268 1.221c.66.145 1.189.394 1.537.679.349.285.472.564.472.794 0 .209-.1.454-.377.712-.28.259-.708.498-1.261.665a.625.625 0 0 0 .36 1.197c.686-.207 1.298-.526 1.752-.947.454-.422.776-.978.776-1.627 0-.72-.395-1.323-.93-1.762-.537-.438-1.26-.756-2.06-.932Z" fill="#5C5C7B"/></svg>
